!!!COM: Beethoven
!!!OTL: 9 Variationen uber "Quant' e piu bello" von G. Paisiello
!!!Variation: Variation 5 b
**function	**harm	**kern	**kern
*	*	*clefF4	*clefG2
*	*	*k[f#c#g#]	*k[f#c#g#]
*M2/4	*M2/4	*M2/4	*M2/4
*A:	*A:	*A:	*A:
8T	C#:maj	8r	8e
=129	=129	=129	=129
4T	F#:maj/5	8c#'L	4ee
.	.	(16c#L	.
.	.	16EJJ)	.
4T	F##:dim	8A#'L	(4cc# 4ee
.	.	(16A#L	.
.	.	16EJJ)	.
=130	=130	=130	=130
4T	G#:min	8B'L	4b) 4dd
.	.	(16BL	.
.	.	16EJJ)	.
4T	C#:7	8d'L	4e 4g# 4b
.	.	(16dL	.
.	.	16EJJ)	.
=131	=131	=131	=131
4T	F#:maj/5	8c#'L	4e 4a 4cc#
.	.	(16c#L	.
.	.	16EJJ)	.
4T	F##:dim	8A#'L	(4cc# 4ee
.	.	(16A#L	.
.	.	16EJJ)	.
=132	=132	=132	=132
4T	G#:min	8B'L	4b) 4dd
.	.	(16BL	.
.	.	16EJJ)	.
4T	C#:7	8d'L	4e 4g# 4b
.	.	(16dL	.
.	.	16EJJ)	.
=133	=133	=133	=133
2T	F#:maj	8c#L	8eL 8a 8cc#
.	.	16AL	8eJ 8cc# 8ee
.	.	16BJJ	.
.	.	8c#	8eL 8cc# 8ee
.	.	8r	8eJ 8cc# 8ee
=134	=134	=134	=134
2P	G#:min/b3	8r	8f#L 8cc# 8ee
.	.	16DLL	8f#J 8b 8dd
.	.	16EJJ	.
.	.	8F#	8f#L 8b 8dd
.	.	8r	8f#J 8b 8dd
=135	=135	=135	=135
4D	F#:maj/5	8r	8eL 8b 8cc#
.	.	16ELL	8eJ 8a 8cc#
.	.	16D#JJ	.
4D	C#:7	8E	8dL 8a 8b
.	.	8r	8dJ 8g# 8b
=136	=136	=136	=136
4.T	F#:maj	8r	4c# 4a
.	.	8AA	.
.	.	8A	8r
*-	*-	*-	*-
!!!EMD: Edited in humdrumR 0.7.0.3 on 2024-01-19
